src/img/mission-bg.svg

<svg width="301" height="377" viewBox="0 0 301 377" fill="none" xmlns="http://www.w3.org/2000/svg">
<g opacity="0.4">
<path d="M228.904 163.393L-17.0273 163.393V166.321L228.904 166.321V163.393Z" fill="#A30C33"/>
<path d="M-28.7324 151.685H-31.6602V134.118C-31.6602 133.679 -31.5138 133.386 -31.221 133.094L58.3683 43.7972C58.6611 43.5044 58.9539 43.358 59.393 43.358H141.077V46.2858L59.9786 46.2858L-28.7324 134.704V151.685Z" fill="#A30C33"/>
<path d="M183.53 299.537H73.739C73.2998 299.537 73.007 299.39 72.7143 299.097L-31.221 195.162C-31.5138 194.869 -31.6602 194.577 -31.6602 194.137V179.499H-28.7324V193.552L74.3245 296.609H183.53V299.537Z" fill="#A30C33"/>
<path d="M110.331 205.848H51.483C51.0438 205.848 50.751 205.702 50.4583 205.409L10.9336 166.177L12.983 164.128L52.0686 202.92H110.331V205.848Z" fill="#A30C33"/>
<path d="M69.6393 166.029L67.5898 163.98L106.968 124.309C107.261 124.016 107.554 123.87 107.993 123.87H167.426V126.798H108.578L69.6393 166.029Z" fill="#A30C33"/>
<path d="M293.311 91.6651L60.8472 91.6651C60.4081 91.6651 60.1153 91.5187 59.8225 91.2259L36.5469 67.6575L38.5963 65.608L61.4328 88.7373L293.311 88.7373V91.6651Z" fill="#A30C33"/>
<path d="M86.0299 45.8488L83.9805 43.7994L122.041 5.73861C122.334 5.44583 122.627 5.29944 123.066 5.29944L245.007 5.29944V8.22719L123.652 8.22719L86.0299 45.8488Z" fill="#A30C33"/>
<path d="M109.746 371.268L50.7516 312.274C50.4589 311.981 50.3125 311.688 50.3125 311.249V276.116H53.2403V310.663L111.795 369.218L109.746 371.268Z" fill="#A30C33"/>
<path d="M96.4244 298.655L94.375 296.605L133.168 257.52C133.461 257.227 133.753 257.081 134.192 257.081H281.605V260.008H134.924L96.4244 298.655Z" fill="#A30C33"/>
<path d="M233.298 340.526H167.716C167.277 340.526 166.984 340.38 166.692 340.087L125.41 298.806L127.46 296.756L168.302 337.599H233.298V340.526Z" fill="#A30C33"/>
<path d="M245.011 13.4937C248.73 13.4937 251.745 10.4788 251.745 6.75983C251.745 3.04084 248.73 0.026001 245.011 0.026001C241.292 0.026001 238.277 3.04084 238.277 6.75983C238.277 10.4788 241.292 13.4937 245.011 13.4937Z" fill="#A30C33"/>
<path d="M154.251 60.3375C145.761 60.3375 138.734 53.4573 138.734 44.8204C138.734 36.1836 145.615 29.3033 154.251 29.3033C162.888 29.3033 169.769 36.1836 169.769 44.8204C169.769 53.4573 162.742 60.3375 154.251 60.3375ZM154.251 32.2311C147.371 32.2311 141.662 37.9402 141.662 44.8204C141.662 51.7007 147.371 57.4098 154.251 57.4098C161.132 57.4098 166.841 51.7007 166.841 44.8204C166.841 37.9402 161.132 32.2311 154.251 32.2311Z" fill="#A30C33"/>
<path d="M154.246 51.5523C157.965 51.5523 160.979 48.5374 160.979 44.8184C160.979 41.0994 157.965 38.0846 154.246 38.0846C150.527 38.0846 147.512 41.0994 147.512 44.8184C147.512 48.5374 150.527 51.5523 154.246 51.5523Z" fill="#A30C33"/>
<path d="M300.05 90.4942C300.05 94.1539 296.976 97.228 293.316 97.228C289.656 97.228 286.582 94.1539 286.582 90.4942C286.582 86.8345 289.656 83.7604 293.316 83.7604C296.976 83.7604 300.05 86.6881 300.05 90.4942Z" fill="#A30C33"/>
<path d="M167.421 132.068C171.14 132.068 174.155 129.053 174.155 125.334C174.155 121.615 171.14 118.6 167.421 118.6C163.702 118.6 160.688 121.615 160.688 125.334C160.688 129.053 163.702 132.068 167.421 132.068Z" fill="#A30C33"/>
<path d="M242.08 180.377C233.589 180.377 226.562 173.496 226.562 164.86C226.562 156.223 233.443 149.342 242.08 149.342C250.716 149.342 257.597 156.223 257.597 164.86C257.597 173.496 250.57 180.377 242.08 180.377ZM242.08 152.27C235.199 152.27 229.49 157.979 229.49 164.86C229.49 171.74 235.199 177.449 242.08 177.449C248.96 177.449 254.669 171.74 254.669 164.86C254.669 157.979 248.96 152.27 242.08 152.27Z" fill="#A30C33"/>
<path d="M242.074 171.591C245.793 171.591 248.808 168.576 248.808 164.858C248.808 161.139 245.793 158.124 242.074 158.124C238.355 158.124 235.34 161.139 235.34 164.858C235.34 168.576 238.355 171.591 242.074 171.591Z" fill="#A30C33"/>
<path d="M110.324 211.119C114.043 211.119 117.058 208.104 117.058 204.385C117.058 200.666 114.043 197.651 110.324 197.651C106.605 197.651 103.59 200.666 103.59 204.385C103.59 208.104 106.605 211.119 110.324 211.119Z" fill="#A30C33"/>
<path d="M281.609 265.283C285.328 265.283 288.343 262.268 288.343 258.549C288.343 254.83 285.328 251.815 281.609 251.815C277.89 251.815 274.875 254.83 274.875 258.549C274.875 262.268 277.89 265.283 281.609 265.283Z" fill="#A30C33"/>
<path d="M196.701 313.298C188.21 313.298 181.184 306.418 181.184 297.781C181.184 289.144 188.064 282.264 196.701 282.264C205.338 282.264 212.218 289.144 212.218 297.781C212.218 306.418 205.191 313.298 196.701 313.298ZM196.701 285.192C189.82 285.192 184.111 290.901 184.111 297.781C184.111 304.662 189.82 310.371 196.701 310.371C203.581 310.371 209.29 304.662 209.29 297.781C209.29 290.901 203.581 285.192 196.701 285.192Z" fill="#A30C33"/>
<path d="M203.433 297.779C203.433 301.439 200.358 304.513 196.699 304.513C193.039 304.513 189.965 301.439 189.965 297.779C189.965 294.12 193.039 291.046 196.699 291.046C200.358 291.046 203.433 294.12 203.433 297.779Z" fill="#A30C33"/>
<path d="M233.296 345.794C237.015 345.794 240.03 342.78 240.03 339.061C240.03 335.342 237.015 332.327 233.296 332.327C229.577 332.327 226.562 335.342 226.562 339.061C226.562 342.78 229.577 345.794 233.296 345.794Z" fill="#A30C33"/>
<path d="M117.511 370.24C117.511 373.9 114.436 376.974 110.777 376.974C107.117 376.974 104.043 373.9 104.043 370.24C104.043 366.58 107.117 363.506 110.777 363.506C114.583 363.653 117.511 366.58 117.511 370.24Z" fill="#A30C33"/>
<g opacity="0.4">
<path d="M228.914 163.393L-19.9453 163.393V166.321L228.914 166.321V163.393Z" fill="black"/>
<path d="M-28.7324 151.685H-31.6602V134.118C-31.6602 133.679 -31.5138 133.386 -31.221 133.094L58.3683 43.7972C58.6611 43.5044 58.9539 43.358 59.393 43.358H141.077V46.2858L59.9786 46.2858L-28.7324 134.704V151.685Z" fill="black"/>
<path d="M183.53 299.537H73.739C73.2998 299.537 73.007 299.39 72.7143 299.097L-31.221 195.162C-31.5138 194.869 -31.6602 194.577 -31.6602 194.137V179.499H-28.7324V193.552L74.3245 296.609H183.53V299.537Z" fill="black"/>
<path d="M110.335 205.848H51.4869C51.0477 205.848 50.755 205.702 50.4622 205.409L10.9375 166.177L12.9869 164.128L52.0725 202.92H110.335V205.848Z" fill="black"/>
<path d="M69.6393 166.029L67.5898 163.98L106.968 124.309C107.261 124.016 107.554 123.87 107.993 123.87H167.426V126.798H108.578L69.6393 166.029Z" fill="black"/>
<path d="M293.319 91.6651L60.8551 91.6651C60.4159 91.6651 60.1231 91.5187 59.8303 91.2259L36.5547 67.6575L38.6041 65.608L61.4406 88.7373L293.319 88.7373V91.6651Z" fill="black"/>
<path d="M86.0377 45.8488L83.9883 43.7994L122.049 5.73861C122.342 5.44583 122.635 5.29944 123.074 5.29944L245.015 5.29944V8.22719L123.659 8.22719L86.0377 45.8488Z" fill="black"/>
<path d="M109.75 371.268L50.7556 312.274C50.4628 311.981 50.3164 311.688 50.3164 311.249V276.116H53.2442V310.663L111.799 369.218L109.75 371.268Z" fill="black"/>
<path d="M96.4244 298.655L94.375 296.605L133.168 257.52C133.461 257.227 133.753 257.081 134.192 257.081H281.605V260.008H134.924L96.4244 298.655Z" fill="black"/>
<path d="M233.298 340.526H167.716C167.277 340.526 166.984 340.38 166.692 340.087L125.41 298.806L127.46 296.756L168.302 337.599H233.298V340.526Z" fill="black"/>
<path d="M245.011 13.4937C248.73 13.4937 251.745 10.4788 251.745 6.75983C251.745 3.04084 248.73 0.026001 245.011 0.026001C241.292 0.026001 238.277 3.04084 238.277 6.75983C238.277 10.4788 241.292 13.4937 245.011 13.4937Z" fill="black"/>
<path d="M154.248 60.3375C145.757 60.3375 138.73 53.4573 138.73 44.8204C138.73 36.1836 145.611 29.3033 154.248 29.3033C162.884 29.3033 169.765 36.1836 169.765 44.8204C169.765 53.4573 162.738 60.3375 154.248 60.3375ZM154.248 32.2311C147.367 32.2311 141.658 37.9402 141.658 44.8204C141.658 51.7007 147.367 57.4098 154.248 57.4098C161.128 57.4098 166.837 51.7007 166.837 44.8204C166.837 37.9402 161.128 32.2311 154.248 32.2311Z" fill="black"/>
<path d="M300.054 90.4942C300.054 94.1539 296.979 97.228 293.32 97.228C289.66 97.228 286.586 94.1539 286.586 90.4942C286.586 86.8345 289.66 83.7604 293.32 83.7604C296.979 83.7604 300.054 86.6881 300.054 90.4942Z" fill="black"/>
<path d="M167.421 132.068C171.14 132.068 174.155 129.053 174.155 125.334C174.155 121.615 171.14 118.6 167.421 118.6C163.702 118.6 160.688 121.615 160.688 125.334C160.688 129.053 163.702 132.068 167.421 132.068Z" fill="black"/>
<path d="M242.084 180.377C233.593 180.377 226.566 173.496 226.566 164.86C226.566 156.223 233.447 149.342 242.084 149.342C250.72 149.342 257.601 156.223 257.601 164.86C257.601 173.496 250.574 180.377 242.084 180.377ZM242.084 152.27C235.203 152.27 229.494 157.979 229.494 164.86C229.494 171.74 235.203 177.449 242.084 177.449C248.964 177.449 254.673 171.74 254.673 164.86C254.673 157.979 248.964 152.27 242.084 152.27Z" fill="black"/>
<path d="M110.328 211.119C114.047 211.119 117.061 208.104 117.061 204.385C117.061 200.666 114.047 197.651 110.328 197.651C106.609 197.651 103.594 200.666 103.594 204.385C103.594 208.104 106.609 211.119 110.328 211.119Z" fill="black"/>
<path d="M281.609 265.283C285.328 265.283 288.343 262.268 288.343 258.549C288.343 254.83 285.328 251.815 281.609 251.815C277.89 251.815 274.875 254.83 274.875 258.549C274.875 262.268 277.89 265.283 281.609 265.283Z" fill="black"/>
<path d="M196.705 313.298C188.214 313.298 181.188 306.418 181.188 297.781C181.188 289.144 188.068 282.264 196.705 282.264C205.342 282.264 212.222 289.144 212.222 297.781C212.222 306.418 205.195 313.298 196.705 313.298ZM196.705 285.192C189.825 285.192 184.115 290.901 184.115 297.781C184.115 304.662 189.825 310.371 196.705 310.371C203.585 310.371 209.294 304.662 209.294 297.781C209.294 290.901 203.585 285.192 196.705 285.192Z" fill="black"/>
<path d="M233.3 345.794C237.019 345.794 240.034 342.78 240.034 339.061C240.034 335.342 237.019 332.327 233.3 332.327C229.581 332.327 226.566 335.342 226.566 339.061C226.566 342.78 229.581 345.794 233.3 345.794Z" fill="black"/>
<path d="M117.511 370.24C117.511 373.9 114.436 376.974 110.777 376.974C107.117 376.974 104.043 373.9 104.043 370.24C104.043 366.58 107.117 363.506 110.777 363.506C114.583 363.653 117.511 366.58 117.511 370.24Z" fill="black"/>
</g>
</g>
</svg>

<svg xmlns="http://www.w3.org/2000/svg" width="301" height="377" fill="none"><g opacity=".4"><path fill="#A30C33" d="M228.904 163.393H-17.027v2.928h245.931v-2.928ZM-28.732 151.685h-2.928v-17.567c0-.439.146-.732.439-1.024l89.59-89.297c.292-.293.585-.439 1.024-.439h81.684v2.928H59.979l-88.711 88.418v16.981ZM183.53 299.537H73.739c-.44 0-.732-.147-1.025-.44L-31.22 195.162c-.293-.293-.44-.585-.44-1.025v-14.638h2.929v14.053L74.324 296.609H183.53v2.928Z"/><path fill="#A30C33" d="M110.331 205.848H51.483c-.44 0-.732-.146-1.025-.439l-39.524-39.232 2.049-2.049 39.086 38.792h58.262v2.928ZM69.64 166.029l-2.05-2.049 39.378-39.671c.293-.293.586-.439 1.025-.439h59.433v2.928h-58.848l-38.939 39.231ZM293.311 91.665H60.847c-.439 0-.732-.146-1.025-.44L36.547 67.659l2.05-2.05 22.836 23.13H293.31v2.927ZM86.03 45.849l-2.05-2.05 38.061-38.06c.293-.293.586-.44 1.025-.44h121.941v2.928H123.652L86.03 45.85ZM109.746 371.268l-58.994-58.994c-.293-.293-.44-.586-.44-1.025v-35.133h2.928v34.547l58.555 58.555-2.049 2.05ZM96.424 298.655l-2.049-2.05 38.793-39.085c.293-.293.585-.439 1.024-.439h147.413v2.927H134.924l-38.5 38.647ZM233.298 340.526h-65.582c-.439 0-.732-.146-1.024-.439l-41.282-41.281 2.05-2.05 40.842 40.843h64.996v2.927Z"/><path fill="#A30C33" d="M245.011 13.494a6.734 6.734 0 1 0 0-13.468 6.734 6.734 0 0 0 0 13.468ZM154.251 60.337c-8.49 0-15.517-6.88-15.517-15.517 0-8.636 6.881-15.517 15.517-15.517 8.637 0 15.518 6.88 15.518 15.517s-7.027 15.517-15.518 15.517Zm0-28.106c-6.88 0-12.589 5.71-12.589 12.59s5.709 12.589 12.589 12.589c6.881 0 12.59-5.71 12.59-12.59s-5.709-12.589-12.59-12.589Z"/><path fill="#A30C33" d="M154.246 51.552a6.733 6.733 0 0 0 6.733-6.734 6.733 6.733 0 1 0-13.467 0 6.734 6.734 0 0 0 6.734 6.734ZM300.05 90.494c0 3.66-3.074 6.734-6.734 6.734s-6.734-3.074-6.734-6.734 3.074-6.734 6.734-6.734 6.734 2.928 6.734 6.734ZM167.421 132.068a6.734 6.734 0 1 0 0-13.468 6.734 6.734 0 0 0 0 13.468ZM242.08 180.377c-8.491 0-15.518-6.881-15.518-15.517 0-8.637 6.881-15.518 15.518-15.518 8.636 0 15.517 6.881 15.517 15.518 0 8.636-7.027 15.517-15.517 15.517Zm0-28.107c-6.881 0-12.59 5.709-12.59 12.59 0 6.88 5.709 12.589 12.59 12.589 6.88 0 12.589-5.709 12.589-12.589 0-6.881-5.709-12.59-12.589-12.59Z"/><path fill="#A30C33" d="M242.074 171.591a6.734 6.734 0 1 0 0-13.468 6.734 6.734 0 0 0 0 13.468ZM110.324 211.119a6.734 6.734 0 1 0 0-13.468 6.734 6.734 0 0 0 0 13.468ZM281.609 265.283a6.734 6.734 0 1 0 0-13.468 6.734 6.734 0 0 0 0 13.468ZM196.701 313.298c-8.491 0-15.517-6.88-15.517-15.517s6.88-15.517 15.517-15.517 15.517 6.88 15.517 15.517-7.027 15.517-15.517 15.517Zm0-28.106c-6.881 0-12.59 5.709-12.59 12.589 0 6.881 5.709 12.59 12.59 12.59 6.88 0 12.589-5.709 12.589-12.59 0-6.88-5.709-12.589-12.589-12.589Z"/><path fill="#A30C33" d="M203.433 297.779c0 3.66-3.075 6.734-6.734 6.734-3.66 0-6.734-3.074-6.734-6.734 0-3.659 3.074-6.733 6.734-6.733 3.659 0 6.734 3.074 6.734 6.733ZM233.296 345.794a6.733 6.733 0 1 0 0-13.467 6.734 6.734 0 0 0 0 13.467ZM117.511 370.24c0 3.66-3.075 6.734-6.734 6.734-3.66 0-6.734-3.074-6.734-6.734s3.074-6.734 6.734-6.734c3.806.147 6.734 3.074 6.734 6.734Z"/><g fill="#000" opacity=".4"><path d="M228.914 163.393h-248.86v2.928h248.86v-2.928ZM-28.732 151.685h-2.928v-17.567c0-.439.146-.732.439-1.024l89.59-89.297c.292-.293.585-.439 1.024-.439h81.684v2.928H59.979l-88.711 88.418v16.981ZM183.53 299.537H73.739c-.44 0-.732-.147-1.025-.44L-31.22 195.162c-.293-.293-.44-.585-.44-1.025v-14.638h2.929v14.053L74.324 296.609H183.53v2.928Z"/><path d="M110.335 205.848H51.487c-.44 0-.732-.146-1.025-.439l-39.525-39.232 2.05-2.049 39.085 38.792h58.263v2.928ZM69.64 166.029l-2.05-2.049 39.378-39.671c.293-.293.586-.439 1.025-.439h59.433v2.928h-58.848l-38.939 39.231ZM293.319 91.665H60.855c-.44 0-.732-.146-1.025-.44L36.555 67.659l2.05-2.05 22.836 23.13h231.878v2.927ZM86.038 45.849l-2.05-2.05L122.05 5.74c.293-.293.586-.44 1.025-.44h121.941v2.928H123.659L86.038 45.85ZM109.75 371.268l-58.994-58.994c-.293-.293-.44-.586-.44-1.025v-35.133h2.928v34.547l58.555 58.555-2.049 2.05ZM96.424 298.655l-2.049-2.05 38.793-39.085c.293-.293.585-.439 1.024-.439h147.413v2.927H134.924l-38.5 38.647ZM233.298 340.526h-65.582c-.439 0-.732-.146-1.024-.439l-41.282-41.281 2.05-2.05 40.842 40.843h64.996v2.927Z"/><path d="M245.011 13.494a6.734 6.734 0 1 0 0-13.468 6.734 6.734 0 0 0 0 13.468ZM154.248 60.337c-8.491 0-15.518-6.88-15.518-15.517 0-8.636 6.881-15.517 15.518-15.517 8.636 0 15.517 6.88 15.517 15.517s-7.027 15.517-15.517 15.517Zm0-28.106c-6.881 0-12.59 5.71-12.59 12.59s5.709 12.589 12.59 12.589c6.88 0 12.589-5.71 12.589-12.59s-5.709-12.589-12.589-12.589ZM300.054 90.494c0 3.66-3.075 6.734-6.734 6.734-3.66 0-6.734-3.074-6.734-6.734s3.074-6.734 6.734-6.734c3.659 0 6.734 2.928 6.734 6.734ZM167.421 132.068a6.734 6.734 0 1 0 0-13.468 6.734 6.734 0 0 0 0 13.468ZM242.084 180.377c-8.491 0-15.518-6.881-15.518-15.517 0-8.637 6.881-15.518 15.518-15.518 8.636 0 15.517 6.881 15.517 15.518 0 8.636-7.027 15.517-15.517 15.517Zm0-28.107c-6.881 0-12.59 5.709-12.59 12.59 0 6.88 5.709 12.589 12.59 12.589 6.88 0 12.589-5.709 12.589-12.589 0-6.881-5.709-12.59-12.589-12.59ZM110.328 211.119a6.733 6.733 0 0 0 6.733-6.734 6.733 6.733 0 1 0-13.467 0 6.734 6.734 0 0 0 6.734 6.734ZM281.609 265.283a6.734 6.734 0 1 0 0-13.468 6.734 6.734 0 0 0 0 13.468ZM196.705 313.298c-8.491 0-15.517-6.88-15.517-15.517s6.88-15.517 15.517-15.517 15.517 6.88 15.517 15.517-7.027 15.517-15.517 15.517Zm0-28.106c-6.88 0-12.59 5.709-12.59 12.589 0 6.881 5.71 12.59 12.59 12.59s12.589-5.709 12.589-12.59c0-6.88-5.709-12.589-12.589-12.589ZM233.3 345.794a6.733 6.733 0 1 0 0-13.467 6.734 6.734 0 0 0 0 13.467ZM117.511 370.24c0 3.66-3.075 6.734-6.734 6.734-3.66 0-6.734-3.074-6.734-6.734s3.074-6.734 6.734-6.734c3.806.147 6.734 3.074 6.734 6.734Z"/></g></g></svg>
